X: 0572
T: FISHER'S HORNPIPE
B: Oliver Ditson "The Boston Collection of Instrumental Music" 1910 p.57 #2
F: http://conquest.imslp.info/files/imglnks/usimg/8/8f/IMSLP175643-PMLP309456-bostoncollection00bost_bw.pdf
N: The rhythms of the endings don't quite work.
M: 2/4
L: 1/16
K: F
|: \
fcAc BdcB | AcAc BdcB | AFAF BGBG | AFAF G4 |\
fcAc BdcB | AcAc BdcB | ABcd efge | f2f2f2 :|
|: ef |\
gece gebg | afcf afc'a | gece geba | gfed c2 Bc |\
dBFB dBfd | cAFA cAfc | dfed cBAG | F2F2F2 z2 :|

%%sep 1 1 500
%%sep 1 1 500
